assets/icons/pc_specs/monitor.svg

<svg xmlns="http://www.w3.org/2000/svg" fill="none" viewBox="0 0 32 32"><path fill="#2B398F" d="M30.125 2H1.875C.8411 2 0 2.8411 0 3.875V22.5c0 1.0339.8411 1.875 1.875 1.875h9.1875V29H6a.9376.9376 0 0 0 0 1.875h20A.9376.9376 0 0 0 26 29h-5.0625v-4.625h9.1875c1.0339 0 1.875-.8411 1.875-1.875V3.875C32 2.8411 31.1589 2 30.125 2ZM19.0625 29h-6.125v-4.625h6.125V29Zm11.0625-6.5H1.875V3.875h28.25c.0012 19.0295.0063 18.625 0 18.625Z"/><path fill="#3749BB" d="M30.125 2H1.875C.8411 2 0 2.8411 0 3.875V22.5c0 1.0339.8411 1.875 1.875 1.875h9.1875V29H6a.9376.9376 0 0 0 0 1.875h20A.9376.9376 0 0 0 26 29h-5.0625v-4.625h9.1875c1.0339 0 1.875-.8411 1.875-1.875V3.875C32 2.8411 31.1589 2 30.125 2ZM19.0625 29h-6.125v-4.625h6.125V29Zm11.0625-6.5H1.875V3.875h28.25c.0012 19.0295.0063 18.625 0 18.625Z"/></svg>

<svg width="32" height="32" viewBox="0 0 32 32" fill="none" xmlns="http://www.w3.org/2000/svg">
<path d="M30.125 2H1.875C0.841125 2 0 2.84113 0 3.875V22.5C0 23.5339 0.841125 24.375 1.875 24.375H11.0625V29H6C5.48225 29 5.0625 29.4198 5.0625 29.9375C5.0625 30.4552 5.48225 30.875 6 30.875H26C26.5177 30.875 26.9375 30.4552 26.9375 29.9375C26.9375 29.4198 26.5177 29 26 29H20.9375V24.375H30.125C31.1589 24.375 32 23.5339 32 22.5V3.875C32 2.84113 31.1589 2 30.125 2ZM19.0625 29H12.9375V24.375H19.0625V29ZM30.125 22.5C29.3027 22.5 2.534 22.5 1.875 22.5V3.875H30.125C30.1262 22.9045 30.1313 22.5 30.125 22.5Z" fill="#2B398F"/>
<path d="M30.125 2H1.875C0.841125 2 0 2.84113 0 3.875V22.5C0 23.5339 0.841125 24.375 1.875 24.375H11.0625V29H6C5.48225 29 5.0625 29.4198 5.0625 29.9375C5.0625 30.4552 5.48225 30.875 6 30.875H26C26.5177 30.875 26.9375 30.4552 26.9375 29.9375C26.9375 29.4198 26.5177 29 26 29H20.9375V24.375H30.125C31.1589 24.375 32 23.5339 32 22.5V3.875C32 2.84113 31.1589 2 30.125 2ZM19.0625 29H12.9375V24.375H19.0625V29ZM30.125 22.5C29.3027 22.5 2.534 22.5 1.875 22.5V3.875H30.125C30.1262 22.9045 30.1313 22.5 30.125 22.5Z" fill="#3749BB"/>
</svg>
